X:548
T: Musterung (248a), S. 529
N: T0436
O: Luxemburg
S: Singendes Volk, Esch-Alzette, 1937 posth.]
N: Stra?en, fff Witry, 10.1.1933
R: Berufslied]
M: 2/4
L: 1/8
K: D
A | BAFE | DD2z |
A2GE | D2z2 |
GGGA | AEEE |
GGGF | BAFF |
A2GE | D2z

